public/flexible-pay.svg

<svg width="82" height="82" viewBox="0 0 82 82" fill="none" xmlns="http://www.w3.org/2000/svg">
<rect width="82" height="82" fill="#F5F8F6"/>
<rect x="82" y="1" width="6" height="1" transform="rotate(180 82 1)" fill="#C0CFC8"/>
<rect width="6" height="1" transform="matrix(-1 0 0 1 82 81)" fill="#C0CFC8"/>
<rect width="6" height="1" transform="matrix(1 0 0 -1 0 1)" fill="#C0CFC8"/>
<rect y="81" width="6" height="1" fill="#C0CFC8"/>
<rect x="82" width="6" height="1" transform="rotate(90 82 0)" fill="#C0CFC8"/>
<rect width="6" height="1" transform="matrix(0 -1 -1 0 82 82)" fill="#C0CFC8"/>
<rect width="6" height="1" transform="matrix(0 1 1 0 0 0)" fill="#C0CFC8"/>
<rect y="82" width="6" height="1" transform="rotate(-90 0 82)" fill="#C0CFC8"/>
<path d="M56.687 29.4276L52.2538 25.5596V27.5627L43.2109 27.6362V31.1561L52.2244 31.3476L52.1947 33.5568L56.687 29.4276Z" fill="#C9FFE8"/>
<path d="M56.4661 35.5598H47.7619V33.5566L43.2109 37.2932L47.7912 41.1711V39.0354L56.4661 39.0796V35.5598Z" fill="#0F5251"/>
<path d="M52.2386 34.0628C52.1382 34.0628 52.0375 34.0416 51.9427 33.9974C51.6943 33.8822 51.5352 33.6333 51.5352 33.3594V31.8794H43.1565C42.7681 31.8794 42.4531 31.5645 42.4531 31.176V27.6763C42.4531 27.2878 42.7681 26.9729 43.1565 26.9729H51.5352V25.4933C51.5352 25.2193 51.6943 24.9705 51.9427 24.8552C52.1902 24.7404 52.4836 24.7793 52.6928 24.9563L57.3367 28.8869C57.4947 29.0205 57.5859 29.2167 57.5859 29.4235C57.5859 29.6303 57.4954 29.8268 57.3374 29.9604L52.6935 33.896C52.5638 34.0055 52.4023 34.0628 52.2386 34.0628ZM43.8603 30.473H52.239C52.6274 30.473 52.9424 30.7879 52.9424 31.1764V31.8416L55.7945 29.4242L52.9424 27.0104V27.6767C52.9424 28.0651 52.6274 28.3801 52.239 28.3801H43.8603V30.473Z" fill="#0F5251"/>
<path d="M47.8161 41.9303C47.6531 41.9303 47.4916 41.8738 47.3618 41.7639L42.718 37.8333C42.56 37.6996 42.4688 37.5035 42.4688 37.2967C42.4688 37.0899 42.5596 36.8934 42.7172 36.7598L47.3611 32.8242C47.57 32.6471 47.862 32.6068 48.1116 32.7228C48.3601 32.838 48.5191 33.0869 48.5191 33.3608V34.8404H56.8978C57.2863 34.8404 57.6012 35.1554 57.6012 35.5438V39.0435C57.6012 39.432 57.2863 39.7469 56.8978 39.7469H48.5191V41.2269C48.5191 41.5009 48.3604 41.7497 48.1116 41.8649C48.0175 41.9088 47.9165 41.9303 47.8161 41.9303ZM44.2605 37.2963L47.1126 39.7102V39.0439C47.1126 38.6554 47.4276 38.3405 47.8161 38.3405H56.1947V36.2476H47.8161C47.428 36.2476 47.1126 35.9326 47.1126 35.5442V34.879L44.2605 37.2963Z" fill="#0F5251"/>
<path d="M50.3615 25.8715V23.1003C50.3615 20.838 48.5199 19 46.2577 19H29.0967C26.838 19 25 20.838 25 23.1003V58.3554C25 60.9181 27.0855 63 29.6517 63H45.7134C48.276 63 50.3615 60.9181 50.3615 58.3554V41.7317C50.3615 41.3429 50.0469 41.0283 49.6581 41.0283C49.2693 41.0283 48.9547 41.3429 48.9547 41.7317V56.8397H26.4068V25.8715H50.3615ZM26.4068 23.1003C26.4068 21.6157 27.6157 20.4068 29.0967 20.4068H46.2577C47.7458 20.4068 48.9547 21.6157 48.9547 23.1003V24.4647H26.4068V23.1003ZM48.9547 58.2465V58.3554C48.9547 60.1404 47.5019 61.5932 45.7134 61.5932H29.6517C27.8631 61.5932 26.4068 60.1404 26.4068 58.3554V58.2465H48.9547Z" fill="#0F5251"/>
<path d="M42 46.0015C42 46.1861 41.9898 46.3442 41.9694 46.476C41.949 46.6013 41.9184 46.7034 41.8776 46.7825C41.8435 46.8616 41.8027 46.9176 41.7551 46.9506C41.7075 46.9835 41.6531 47 41.5918 47H33.4082C33.3469 47 33.2925 46.9835 33.2449 46.9506C33.1973 46.9176 33.1531 46.8616 33.1122 46.7825C33.0782 46.7034 33.051 46.6013 33.0306 46.476C33.0102 46.3442 33 46.1861 33 46.0015C33 45.8104 33.0068 45.6522 33.0204 45.527C33.0408 45.3952 33.068 45.2897 33.102 45.2106C33.1429 45.1316 33.1871 45.0755 33.2347 45.0426C33.2891 45.0096 33.3469 44.9932 33.4082 44.9932H34.4898V41.4738H33.4082C33.3469 41.4738 33.2925 41.4606 33.2449 41.4342C33.1973 41.4013 33.1531 41.3485 33.1122 41.276C33.0782 41.197 33.051 41.0948 33.0306 40.9696C33.0102 40.8444 33 40.6862 33 40.4951C33 40.3105 33.0068 40.1556 33.0204 40.0304C33.0408 39.9052 33.068 39.8063 33.102 39.7338C33.1429 39.6548 33.1871 39.5987 33.2347 39.5658C33.2891 39.5328 33.3469 39.5163 33.4082 39.5163H34.4898V38.6068C34.4898 37.8028 34.5816 37.1108 34.7653 36.5308C34.949 35.9442 35.2177 35.4631 35.5714 35.0875C35.9252 34.7118 36.3639 34.4383 36.8878 34.2669C37.4116 34.089 38.0136 34 38.6939 34C38.9932 34 39.2789 34.0231 39.551 34.0692C39.8299 34.1087 40.085 34.1681 40.3163 34.2471C40.5476 34.3196 40.7551 34.4086 40.9388 34.5141C41.1293 34.6129 41.2653 34.7052 41.3469 34.7909C41.4354 34.8766 41.4966 34.949 41.5306 35.0084C41.5714 35.0611 41.602 35.1303 41.6224 35.216C41.6429 35.2951 41.6565 35.3939 41.6633 35.5125C41.6769 35.6312 41.6837 35.7762 41.6837 35.9475C41.6837 36.1321 41.6735 36.2869 41.6531 36.4122C41.6395 36.5374 41.6156 36.6395 41.5816 36.7186C41.5476 36.7911 41.5068 36.8439 41.4592 36.8768C41.4116 36.9098 41.3605 36.9262 41.3061 36.9262C41.2109 36.9262 41.102 36.8801 40.9796 36.7878C40.8639 36.6956 40.7143 36.5967 40.5306 36.4913C40.3537 36.3792 40.1429 36.2771 39.898 36.1848C39.6531 36.0925 39.3605 36.0464 39.0204 36.0464C38.6803 36.0464 38.3912 36.1024 38.1531 36.2144C37.915 36.3199 37.7211 36.4781 37.5714 36.689C37.4218 36.8933 37.3129 37.1503 37.2449 37.4601C37.1769 37.7632 37.1429 38.1125 37.1429 38.508V39.5163H39.8878C39.949 39.5163 40.0034 39.5328 40.051 39.5658C40.1054 39.5987 40.1497 39.6548 40.1837 39.7338C40.2177 39.8063 40.2449 39.9052 40.2653 40.0304C40.2857 40.1556 40.2959 40.3105 40.2959 40.4951C40.2959 40.6862 40.2857 40.8444 40.2653 40.9696C40.2449 41.0948 40.2143 41.197 40.1735 41.276C40.1395 41.3485 40.0986 41.4013 40.051 41.4342C40.0034 41.4606 39.949 41.4738 39.8878 41.4738H37.1429V44.9932H41.5918C41.6531 44.9932 41.7075 45.0096 41.7551 45.0426C41.8095 45.0755 41.8537 45.1316 41.8878 45.2106C41.9218 45.2897 41.949 45.3952 41.9694 45.527C41.9898 45.6522 42 45.8104 42 46.0015Z" fill="#0F5251"/>
</svg>

<svg xmlns="http://www.w3.org/2000/svg" width="82" height="82" fill="none"><path fill="#f5f8f6" d="M0 0h82v82H0z"/><g fill="#c0cfc8"><path d="M82 1h-6V0h6zm0 80h-6v1h6zM0 1h6V0H0zm0 80h6v1H0z"/><path d="M82 0v6h-1V0zm0 82v-6h-1v6zM0 0v6h1V0zm0 82v-6h1v6z"/></g><path d="M56.687 29.428l-4.433-3.868v2.003l-9.043.074v3.52l9.014.191-.03 2.209 4.492-4.129z" fill="#c9ffe8"/><g fill="#0f5251"><path d="M56.466 35.56h-8.704v-2.003l-4.551 3.737 4.58 3.878v-2.136l8.675.044v-3.52zm-19.791-2.339h1.282v1.182c1.431.172 2.358.982 2.78 2.43l-1.765.724c-.344-.993-.877-1.49-1.598-1.49-.361 0-.651.111-.87.333s-.329.491-.329.807c0 .322.105.569.316.741s.663.386 1.357.641c.76.278 1.357.54 1.79.787s.778.588 1.036 1.024.387.944.387 1.527c0 .893-.267 1.638-.799 2.235s-1.302.947-2.305 1.053v1.532h-1.282v-1.523c-1.675-.172-2.713-1.146-3.113-2.921l1.981-.516c.183 1.115.791 1.673 1.823 1.673.483 0 .838-.119 1.065-.358a1.21 1.21 0 0 0 .341-.866c0-.35-.114-.614-.341-.795s-.733-.409-1.515-.686c-.705-.244-1.255-.485-1.652-.724a2.72 2.72 0 0 1-.965-1.003c-.246-.43-.37-.931-.37-1.502a3.33 3.33 0 0 1 .662-2.023c.441-.6 1.136-.965 2.085-1.099v-1.183zm15.564.842a.7.7 0 0 1-.296-.065c-.248-.115-.407-.364-.407-.638v-1.48h-8.379c-.388 0-.703-.315-.703-.703v-3.5c0-.389.315-.703.703-.703h8.379v-1.48c0-.274.159-.523.407-.638s.541-.076.75.101l4.644 3.931c.158.134.249.33.249.537s-.091.403-.248.537l-4.644 3.936a.71.71 0 0 1-.455.167zm-8.378-3.59h8.379c.388 0 .703.315.703.703v.665l2.852-2.417-2.852-2.414v.666c0 .389-.315.703-.703.703h-8.38v2.093z"/><path d="M47.816 41.931a.7.7 0 0 1-.454-.166l-4.644-3.931c-.158-.134-.249-.33-.249-.537s.091-.403.248-.537l4.644-3.936a.7.7 0 0 1 .751-.101c.248.115.407.364.407.638v1.48h8.379c.389 0 .703.315.703.703v3.5c0 .389-.315.703-.703.703h-8.379v1.48c0 .274-.159.523-.407.638a.7.7 0 0 1-.296.065zm-3.556-4.634l2.852 2.414v-.666c0-.389.315-.703.703-.703h8.379v-2.093h-8.379c-.388 0-.703-.315-.703-.703v-.665l-2.852 2.417zm6.102-11.425V23.1a4.11 4.11 0 0 0-4.104-4.1H29.097C26.838 19 25 20.838 25 23.1v35.255C25 60.918 27.086 63 29.652 63h16.062a4.65 4.65 0 0 0 4.648-4.645V41.732c0-.389-.315-.703-.703-.703s-.703.315-.703.703V56.84H26.407V25.872h23.955zM26.407 23.1c0-1.485 1.209-2.693 2.69-2.693h17.161a2.7 2.7 0 0 1 2.697 2.694v1.364H26.407V23.1zm22.548 35.146v.109c0 1.785-1.453 3.238-3.241 3.238H29.652c-1.789 0-3.245-1.453-3.245-3.238v-.109h22.548z"/></g></svg>
